X:1

T:White rock, The

M:6/8
L:1/8

R:Jig

S:Stanford/Petrie (1905), No. 575

Z:AK/Fiddler’s Companion

K:D

A | d2d d2 (3e/f/g/ | f2e d2A | A2G FGA | =c3 A2A | d2d d2g | f2e d2e |

cBA {A}G2E |D3 D2 || A | AA/B/A/G/ FGA | =c2 d/c/ A2A | d2d def |

e2c A2A | d2d d2 {e/f/}g | f2e d2e | cBA AGE | D3 D2 ||

 

WHITE ROSE, THE. English, Hornpipe. G Major. Standard tuning. AABB. A modern composition by editor Michael Raven. Raven (English Country Dance Tunes), 1984; pg. 201.

 

WHITE ROSE (WALTZ) [1], THE. American, Waltz. C Major. Standard tuning. AB. Source for notated versions: J.P. Fraley (Rush, Ky.) via Alan Block (N.H.) via George Wilson (Wynantskill, N.Y.) [Matthiesen]; J.P. Fraley [Phillips]. Matthiesen (Waltz Book II), 1995; pg. 78. Phillips (Traditional American Fiddle Tunes), vol. 2, 1995; pg. 326. Reed Island Rounders - “Wolves in the Wood” (1997). Rounder Records, J.P. Fraley - "Wild Rose of the Mountain."

